!!!COM: Beethoven
!!!OTL: Zehn Variationen uber "la stessa, la stessissima" aus "Falstaff" von A. Salieri
!!!Variation: Variation 10 g
**function	**harm	**kern	**kern
*	*	*clefF4	*clefG2
*	*	*k[b-e-]	*k[b-e-]
*M3/8	*M3/8	*M3/8	*M3/8
*B-:	*B-:	*B-:	*B-:
=311	=311	=311	=311
*	*	*	*^
4.P	4.I/-II	4BB 4F# 4B	4d#	(8f#L
.	.	.	.	8b)
.	.	8BB 8F# 8B	8d#	8b'J
=312	=312	=312	=312	=312
.	.	.	.	q8cc#
4.P	4.I/-II	4BB 4F# 4B	4d#	(16bLL
.	.	.	.	16a#
.	.	.	.	16b
.	.	.	.	16cc#J)
.	.	8BB 8F# 8B	8d#	8dd#'J
=313	=313	=313	=313	=313
4.P	4.V7/-II	4BB 4F# 4A#	8e	8b#'
.	.	.	[4e	([4cc#
.	.	8BB 8F# 8A#	.	.
=314	=314	=314	=314	=314
4.P	4.V7/-II	4BB 4F# 4A#	8eL]	8cc#L]
.	.	.	8e	8f#)
.	.	8BB 8F# 8A#	8eJ	8f#'J
=315	=315	=315	=315	=315
4.P	4.V7/-II	4BB 4F# 4A#	4e	(8f#L
.	.	.	.	8cc#)
.	.	8BB 8F# 8A#	8e	8cc#'J
*	*	*	*v	*v
=316	=316	=316	=316
4.P	4.V7/-II	4BB 4E- 4F# 4A#	(16dd#LL
.	.	.	16cc#
.	.	.	16b#
.	.	.	16cc#J)
.	.	8BB 8E- 8F# 8A#	8ff#'J
=317	=317	=317	=317
4.P	4.I/-II	4BB 4D# 4F# 4B	(16dd#LL
.	.	.	16f#
.	.	.	16d#
.	.	.	16dd#
.	.	8BB 8D# 8F#	16f#
.	.	.	16d#JJ
=318	=318	=318	=318
4.P	4.I/-II	4BB 4D# 4F#	16dd#LL
.	.	.	16f#
.	.	.	16d#
.	.	.	16dd#
.	.	8BB 8D# 8F#	16f#
.	.	.	16d#JJ)
=319	=319	=319	=319
4.P	4.ivc	4BB- 4E- 4G-	(16gg-LL
.	.	.	16ee-
.	.	.	16g-
.	.	.	16gg-
.	.	8BB- 8E- 8G-	16ee-
.	.	.	16g-JJ
=320	=320	=320	=320
4.P	4.ivc	4BB- 4E- 4G-	16gg-LL
.	.	.	16ee-
.	.	.	16g-
.	.	.	16gg-
.	.	8BB- 8E- 8G-	16ee-
.	.	.	16g-JJ)
=321	=321	=321	=321
4.P	4.viioD7	4AA 4E- 4G-	(16cccLL
.	.	.	16gg-
.	.	.	16cc
.	.	.	16ccc
.	.	8AA 8E- 8G-	16gg-
.	.	.	16ccJJ
=322	=322	=322	=322
4.P	4.V7/-III	4AA- 4E- 4G-	16cccLL
.	.	.	16gg-
.	.	.	16cc
.	.	.	16ccc
.	.	8AA- 8E- 8G-	16gg-
.	.	.	16ccJJ)
=323	=323	=323	=323
4.P	4.Ic/-III	4AA- 4D- 4F	(16ddd-LL
.	.	.	16ff
.	.	.	16dd-
.	.	.	16ddd-
.	.	8AA- 8D- 8F	16ff
.	.	.	16dd-JJ
=324	=324	=324	=324
4.P	4.V+b	4AAn 4D- 4F	16ddd-LL
.	.	.	16ff
.	.	.	16dd-
.	.	.	16ddd-
.	.	8AA 8D- 8F	16ff
.	.	.	16dd-JJ)
=325	=325	=325	=325
4.P	4.i	4BB- 4D- 4F	(16ddd-LL
.	.	.	16ff
.	.	.	16dd-
.	.	.	16ddd-
.	.	8BB- 8D- 8F	16ff
.	.	.	16dd-JJ
=326	=326	=326	=326
4.D	4.Gn	4GG- 4BB- 4D- 4E	16eeeLL
.	.	.	16bb-
.	.	.	16ee
.	.	.	16eee
.	.	8GG- 8BB- 8D- 8E	16bb-
.	.	.	16eeJJ)
=327	=327	=327	=327
4.D	4.Cc	[4.FF [4.BB- [4.D [4.F	(16fffLL
.	.	.	16ddd
.	.	.	16bb-)
.	.	.	16ddd'
.	.	.	16bb-'
.	.	.	16ff'JJ
=328	=328	=328	=328
4.D	4.Cc	4.FF_ 4.BB-_ 4.D_ 4.F_	(16bb-LL
.	.	.	16ff
.	.	.	16dd)
.	.	.	16ff'
.	.	.	16dd'
.	.	.	16b-'JJ
=329	=329	=329	=329
4.D	4.Cc	4.FF_ 4.BB-_ 4.D_ 4.F_	(16ddLL
.	.	.	16b-
.	.	.	16f)
.	.	.	16b-'
.	.	.	16f'
.	.	.	16d'JJ
=330	=330	=330	=330
4.D	4.Cc	4.FF_ 4.BB-] 4.D] 4.F]	(16fLL
.	.	.	16d
.	.	.	16B-)
.	.	.	16d'
.	.	.	16B-'
.	.	.	16F'JJ
*	*	*	*clefF4
=331	=331	=331	=331
4D	4Ic	4FF]	16DLL
.	.	.	16B-
.	.	.	16A
.	.	.	16B-
8D	8Ib	16DDLL	16D
.	.	16BB-JJ	16B-JJ
=332	=332	=332	=332
8D	8IV	16EE-LL	16E-LL
.	.	16BB-	16B-
8D	8viio/V	16EE	16E
.	.	16BB-	16B-
8D	8Cc	16FF	16F
.	.	16BB-JJ	16B-JJ
=333	=333	=333	=333
8D	8viio/vi	16FF#LL	16F#LL
.	.	16BB-	16B-
8D	8vi	16GG	16G
.	.	16BB-	16B-
8D	8Ib	16DD	16D
.	.	16BB-JJ	16B-JJ
=334	=334	=334	=334
8D	8IV	16EE-LL	16E-LL
.	.	16BB-	16B-
8D	8viio/V	16EE	16E
.	.	16BB-	16B-
8D	8Cc	16FF	16F
.	.	16BB-JJ	16B-JJ
=335	=335	=335	=335
8D	8viio/vi	16FF#LL	16F#LL
.	.	16BB-	16B-
8D	8vi	16GG	16G
.	.	16BB-	16B-
8D	8Ib	16DD	16D
.	.	16BB-JJ	16B-JJ
=336	=336	=336	=336
8D	8IV	16EE-LL	16E-LL
.	.	16BB-	16B-
8D	8viio/V	16EE	16E
.	.	16BB-	16B-
8D	8Cc	16FF	16F
.	.	16BB-JJ	16B-JJ
=337	=337	=337	=337
8D	8viio/vi	16FF#LL	16F#LL
.	.	16BB-	16B-
8D	8vi	16GG	16G
.	.	16BB-	16B-
8D	8viio/V	16EE	16E
.	.	16BB-JJ	16B-JJ
=338	=338	=338	=338
8D	8viio/vi	16FF#LL	16F#LL
.	.	16BB-	16B-
8D	8vi	16GG	16G
.	.	16BB-	16B-
8D	8viio/V	16EE	16E
.	.	16BB-JJ	16B-JJ
=339	=339	=339	=339
4.D	4.V	4FF	24FLL
.	.	.	24F#
.	.	.	24GJ
.	.	.	24A-L
.	.	.	24A
.	.	.	24B-J
.	.	8r	24BL
.	.	.	24c
.	.	.	24c#JJ
*	*	*	*clefG2
=340	=340	=340	=340
4.D	4.V	4.r	24dLL
.	.	.	24e-
.	.	.	24eJ
.	.	.	24fL
.	.	.	24f#
.	.	.	24gJ
.	.	.	24a-L
.	.	.	24a
.	.	.	24b-JJ
=341	=341	=341	=341
4.D	4.V	4.r	24bLL
.	.	.	24cc
.	.	.	24cc#J
.	.	.	24ddL
.	.	.	24ee-
.	.	.	24eeJ
.	.	.	24ffL
.	.	.	24ff#
.	.	.	24ggJJ
=342	=342	=342	=342
4.D	4.V	4.r	24aa-LL
.	.	.	24aa
.	.	.	24bb-J
.	.	.	24bbL
.	.	.	24ccc
.	.	.	24ccc#J
.	.	.	48dddLL
.	.	.	48eee-
.	.	.	48eeeJJ
.	.	.	48fffLL
.	.	.	48ddd
.	.	.	48bb-JJJ
=343	=343	=343	=343
4.D	4.V	4.r	4.ccc
*	*	*clefG2	*
=344	=344	=344	=344
4.D	4.V	8r	4.ccc
.	.	8r	.
.	.	(32fLLL	.
.	.	32e	.
.	.	32f	.
.	.	32gJJJ)	.
=345	=345	=345	=345
4.D	4.V	8f	4.ccc
.	.	8r	.
.	.	(32ffLLL	.
.	.	32ee	.
.	.	32ff	.
.	.	32ggJJJ)	.
=346	=346	=346	=346
4.D	4.V	8ff	4.ccc
.	.	8r	.
.	.	(32ffLLL	.
.	.	32ee	.
.	.	32ff	.
.	.	32ggJJJ)	.
=347	=347	=347	=347
4.D	4.V7d	4ff	4.ccc
.	.	8r	.
=348	=348	=348	=348
4.D	4.V7d	8r	4.ccc
.	.	8r	.
.	.	(32e-LLL	.
.	.	32d	.
.	.	32e-	.
.	.	32fJJJ)	.
=349	=349	=349	=349
4.D	4.V7d	8e-	4.ccc
.	.	8r	.
.	.	(32ee-LLL	.
.	.	32dd	.
.	.	32ee-	.
.	.	32ffJJJ)	.
=350	=350	=350	=350
4.D	4.V7d	8ee-	4.ccc
.	.	8r	.
.	.	(32ee-LLL	.
.	.	32dd	.
.	.	32ee-	.
.	.	32ffJJJ)	.
=351	=351	=351	=351
4.D	4.V7d	4ee-	4.ccc
.	.	8r	.
=352	=352	=352	=352
4.D	4.V7d	8r	4.ccc
.	.	8r	.
.	.	(32ee-LLL	.
.	.	32dd	.
.	.	32ee-	.
.	.	32ffJJJ)	.
=353	=353	=353	=353
4.D	4.V7d	4ee-	4.ccc
.	.	8r	.
=354	=354	=354	=354
4.D	4.V7d	8r	4.ccc
.	.	8r	.
.	.	(32ee-LLL	.
.	.	32dd	.
.	.	32ee-	.
.	.	32ffJJJ)	.
=355	=355	=355	=355
4.D	4.V7d	16ee-LL	4.ccc
.	.	16dd	.
.	.	16cc	.
.	.	16b-	.
.	.	16a	.
.	.	16gJJ	.
*	*	*clefF4	*
=356	=356	=356	=356
4.D	4.V7d	16fLL	4.ccc
.	.	16e-	.
.	.	16d	.
.	.	16c	.
.	.	16B-	.
.	.	16AJJ	.
=357	=357	=357	=357
4.D	4.V	16GLL	4.ccc
.	.	16F	.
.	.	16E-	.
.	.	16D	.
.	.	16C	.
.	.	16BB-JJ	.
=358	=358	=358	=358
4.D	4.V	16AALL	4.ccc
.	.	16GG	.
.	.	16FF	.
.	.	16EE	.
.	.	16FF	.
.	.	16GGJJ	.
=359	=359	=359	=359
4.D	4.V	16AALL	4.ccc
.	.	16BB-	.
.	.	16BB	.
.	.	16C	.
.	.	16C#	.
.	.	16DJJ	.
=360	=360	=360	=360
4.D	4.V	4.FF; 4.AA; 4.C; 4.E-;	4.ccc;
*-	*-	*-	*-
